src/assets/img/console/account-icon.svg

<?xml version="1.0" encoding="UTF-8"?>
<svg width="104px" height="104px" viewBox="0 0 104 104" version="1.1" xmlns="http://www.w3.org/2000/svg" xmlns:xlink="http://www.w3.org/1999/xlink">
    <!-- Generator: Sketch 55.2 (78181) - https://sketchapp.com -->
    <title>编组 8</title>
    <desc>Created with Sketch.</desc>
    <defs>
        <linearGradient x1="50%" y1="0%" x2="50%" y2="100%" id="linearGradient-1">
            <stop stop-color="#8481FF" offset="0%"></stop>
            <stop stop-color="#7BABFF" offset="64.7832323%"></stop>
            <stop stop-color="#77C1FF" offset="100%"></stop>
        </linearGradient>
        <circle id="path-2" cx="47" cy="47" r="47"></circle>
        <filter x="-6.4%" y="-6.4%" width="112.8%" height="112.8%" filterUnits="objectBoundingBox" id="filter-4">
            <feMorphology radius="3" operator="dilate" in="SourceAlpha" result="shadowSpreadOuter1"></feMorphology>
            <feOffset dx="0" dy="0" in="shadowSpreadOuter1" result="shadowOffsetOuter1"></feOffset>
            <feGaussianBlur stdDeviation="1" in="shadowOffsetOuter1" result="shadowBlurOuter1"></feGaussianBlur>
            <feComposite in="shadowBlurOuter1" in2="SourceAlpha" operator="out" result="shadowBlurOuter1"></feComposite>
            <feColorMatrix values="0 0 0 0 0.733497509   0 0 0 0 0.733497509   0 0 0 0 0.733497509  0 0 0 1 0" type="matrix" in="shadowBlurOuter1"></feColorMatrix>
        </filter>
        <linearGradient x1="83.7139918%" y1="50%" x2="37.3371895%" y2="45.4760677%" id="linearGradient-5">
            <stop stop-color="#F6F6F6" offset="0%"></stop>
            <stop stop-color="#B2B2B2" offset="100%"></stop>
        </linearGradient>
        <path d="M40,60 L55,60 C67.1502645,60 77,69.8497355 77,82 C77,94.1502645 67.1502645,104 55,104 L40,104 C27.8497355,104 18,94.1502645 18,82 C18,69.8497355 27.8497355,60 40,60 Z" id="path-6"></path>
        <filter x="-20.3%" y="-27.3%" width="140.7%" height="154.5%" filterUnits="objectBoundingBox" id="filter-7">
            <feGaussianBlur stdDeviation="12" in="SourceAlpha" result="shadowBlurInner1"></feGaussianBlur>
            <feOffset dx="0" dy="0" in="shadowBlurInner1" result="shadowOffsetInner1"></feOffset>
            <feComposite in="shadowOffsetInner1" in2="SourceAlpha" operator="arithmetic" k2="-1" k3="1" result="shadowInnerInner1"></feComposite>
            <feColorMatrix values="0 0 0 0 0.677649457   0 0 0 0 0.677649457   0 0 0 0 0.677649457  0 0 0 0.5 0" type="matrix" in="shadowInnerInner1"></feColorMatrix>
        </filter>
        <rect id="path-8" x="0" y="0" width="4" height="12" rx="2"></rect>
        <filter x="-187.5%" y="-62.5%" width="475.0%" height="225.0%" filterUnits="objectBoundingBox" id="filter-9">
            <feOffset dx="0" dy="0" in="SourceAlpha" result="shadowOffsetOuter1"></feOffset>
            <feGaussianBlur stdDeviation="2.5" in="shadowOffsetOuter1" result="shadowBlurOuter1"></feGaussianBlur>
            <feColorMatrix values="0 0 0 0 0.183952561   0 0 0 0 0.416168488   0 0 0 0 0.688575634  0 0 0 1 0" type="matrix" in="shadowBlurOuter1"></feColorMatrix>
        </filter>
        <rect id="path-10" x="19" y="0" width="4" height="12" rx="2"></rect>
        <filter x="-187.5%" y="-62.5%" width="475.0%" height="225.0%" filterUnits="objectBoundingBox" id="filter-11">
            <feOffset dx="0" dy="0" in="SourceAlpha" result="shadowOffsetOuter1"></feOffset>
            <feGaussianBlur stdDeviation="2.5" in="shadowOffsetOuter1" result="shadowBlurOuter1"></feGaussianBlur>
            <feColorMatrix values="0 0 0 0 0.183952561   0 0 0 0 0.416168488   0 0 0 0 0.688575634  0 0 0 1 0" type="matrix" in="shadowBlurOuter1"></feColorMatrix>
        </filter>
    </defs>
    <g id="页面1" stroke="none" stroke-width="1" fill="none" fill-rule="evenodd">
        <g id="我的账号" transform="translate(-312.000000, -167.000000)">
            <g id="编组-8" transform="translate(317.000000, 172.000000)">
                <mask id="mask-3" fill="white">
                    <use xlink:href="#path-2"></use>
                </mask>
                <g id="椭圆形">
                    <use fill="black" fill-opacity="1" filter="url(#filter-4)" xlink:href="#path-2"></use>
                    <circle stroke="url(#linearGradient-1)" stroke-width="3" fill="#FFFFFF" fill-rule="evenodd" cx="47" cy="47" r="48.5"></circle>
                </g>
                <g id="矩形" mask="url(#mask-3)">
                    <use fill="url(#linearGradient-5)" fill-rule="evenodd" xlink:href="#path-6"></use>
                    <use fill="black" fill-opacity="1" filter="url(#filter-7)" xlink:href="#path-6"></use>
                </g>
                <path d="M36.922974,8.92839268 C44.7134035,6.97613089 48.6153298,6 48.6287527,6 C48.6415767,6 51.9414603,6.89095906 58.5284034,8.67287717 C69.4294098,11.6218469 77,21.5125809 77,32.8054265 L77,40 C77,53.8071187 65.8071187,65 52,65 L43,65 C29.1928813,65 18,53.8071187 18,40 L18,33.1785438 C17.9999985,21.712092 25.800447,11.7156696 36.922974,8.92839268 Z" id="矩形" fill="#E0E0E0" mask="url(#mask-3)"></path>
                <path d="M27,26 L68,26 C69.6568542,26 71,27.3431458 71,29 L71,49 C71,50.6568542 69.6568542,52 68,52 L27,52 C25.3431458,52 24,50.6568542 24,49 L24,29 C24,27.3431458 25.3431458,26 27,26 Z" id="矩形" fill="#232323" mask="url(#mask-3)"></path>
                <g id="编组-7" mask="url(#mask-3)">
                    <g transform="translate(36.000000, 32.000000)">
                        <g id="矩形">
                            <use fill="black" fill-opacity="1" filter="url(#filter-9)" xlink:href="#path-8"></use>
                            <use fill="#1D85FF" fill-rule="evenodd" xlink:href="#path-8"></use>
                        </g>
                        <g id="矩形备份-3">
                            <use fill="black" fill-opacity="1" filter="url(#filter-11)" xlink:href="#path-10"></use>
                            <use fill="#1D85FF" fill-rule="evenodd" xlink:href="#path-10"></use>
                        </g>
                    </g>
                </g>
            </g>
        </g>
    </g>
</svg>

<svg width="104" height="104" viewBox="0 0 104 104" xmlns="http://www.w3.org/2000/svg" xmlns:xlink="http://www.w3.org/1999/xlink"><defs><linearGradient x1="50%" y1="0%" x2="50%" y2="100%" id="c"><stop stop-color="#8481FF" offset="0%"/><stop stop-color="#7BABFF" offset="64.783%"/><stop stop-color="#77C1FF" offset="100%"/></linearGradient><circle id="a" cx="47" cy="47" r="47"/><filter x="-6.4%" y="-6.4%" width="112.8%" height="112.8%" filterUnits="objectBoundingBox" id="b"><feMorphology radius="3" operator="dilate" in="SourceAlpha" result="shadowSpreadOuter1"/><feOffset in="shadowSpreadOuter1" result="shadowOffsetOuter1"/><feGaussianBlur stdDeviation="1" in="shadowOffsetOuter1" result="shadowBlurOuter1"/><feComposite in="shadowBlurOuter1" in2="SourceAlpha" operator="out" result="shadowBlurOuter1"/><feColorMatrix values="0 0 0 0 0.733497509 0 0 0 0 0.733497509 0 0 0 0 0.733497509 0 0 0 1 0" in="shadowBlurOuter1"/></filter><linearGradient x1="83.714%" y1="50%" x2="37.337%" y2="45.476%" id="e"><stop stop-color="#F6F6F6" offset="0%"/><stop stop-color="#B2B2B2" offset="100%"/></linearGradient><path d="M40 60h15c12.15 0 22 9.85 22 22s-9.85 22-22 22H40c-12.15 0-22-9.85-22-22s9.85-22 22-22z" id="f"/><filter x="-20.3%" y="-27.3%" width="140.7%" height="154.5%" filterUnits="objectBoundingBox" id="g"><feGaussianBlur stdDeviation="12" in="SourceAlpha" result="shadowBlurInner1"/><feOffset in="shadowBlurInner1" result="shadowOffsetInner1"/><feComposite in="shadowOffsetInner1" in2="SourceAlpha" operator="arithmetic" k2="-1" k3="1" result="shadowInnerInner1"/><feColorMatrix values="0 0 0 0 0.677649457 0 0 0 0 0.677649457 0 0 0 0 0.677649457 0 0 0 0.5 0" in="shadowInnerInner1"/></filter><rect id="i" width="4" height="12" rx="2"/><filter x="-187.5%" y="-62.5%" width="475%" height="225%" filterUnits="objectBoundingBox" id="h"><feOffset in="SourceAlpha" result="shadowOffsetOuter1"/><feGaussianBlur stdDeviation="2.5" in="shadowOffsetOuter1" result="shadowBlurOuter1"/><feColorMatrix values="0 0 0 0 0.183952561 0 0 0 0 0.416168488 0 0 0 0 0.688575634 0 0 0 1 0" in="shadowBlurOuter1"/></filter><rect id="k" x="19" width="4" height="12" rx="2"/><filter x="-187.5%" y="-62.5%" width="475%" height="225%" filterUnits="objectBoundingBox" id="j"><feOffset in="SourceAlpha" result="shadowOffsetOuter1"/><feGaussianBlur stdDeviation="2.5" in="shadowOffsetOuter1" result="shadowBlurOuter1"/><feColorMatrix values="0 0 0 0 0.183952561 0 0 0 0 0.416168488 0 0 0 0 0.688575634 0 0 0 1 0" in="shadowBlurOuter1"/></filter></defs><g transform="translate(5 5)" fill="none" fill-rule="evenodd"><mask id="d" fill="#fff"><use xlink:href="#a"/></mask><use fill="#000" filter="url(#b)" xlink:href="#a"/><circle stroke="url(#c)" stroke-width="3" fill="#FFF" cx="47" cy="47" r="48.5"/><g mask="url(#d)"><use fill="url(#e)" xlink:href="#f"/><use fill="#000" filter="url(#g)" xlink:href="#f"/></g><path d="M36.923 8.928C44.713 6.976 48.615 6 48.629 6c.013 0 3.312.891 9.9 2.673A25 25 0 0 1 77 32.805V40c0 13.807-11.193 25-25 25h-9c-13.807 0-25-11.193-25-25v-6.821a25 25 0 0 1 18.923-24.25z" fill="#E0E0E0" mask="url(#d)"/><path d="M27 26h41a3 3 0 0 1 3 3v20a3 3 0 0 1-3 3H27a3 3 0 0 1-3-3V29a3 3 0 0 1 3-3z" fill="#232323" mask="url(#d)"/><g mask="url(#d)"><g transform="translate(36 32)"><use fill="#000" filter="url(#h)" xlink:href="#i"/><use fill="#1D85FF" xlink:href="#i"/></g><g transform="translate(36 32)"><use fill="#000" filter="url(#j)" xlink:href="#k"/><use fill="#1D85FF" xlink:href="#k"/></g></g></g></svg>
